X: 39741
T: Thadelo's
R: barndance
M: 4/4
K: Dmajor
|:D>F|A2 A2 A2 D>E|F2 F2 F2 G2|A2 A2 A2 D>F|E2 E2 E2 E>F|
G2 G2 G2 E>F|G2 G2 G2 B2|A2 A2 F2 G>E|D2 D2 D2:|
|:A>d|f2 f2 e2 c>e|d2 A2 A2 d2|B2 B2 A2 d>e|f2 f2 e2 c>e|
f2 f2 e2 c>e|d2 A2 d2 A2|B2 B2 A2 c>d|e2 e2 d2:|

